components/2.0/icon/icons/icon-angular-22px.svg

<svg width="22" height="22" xmlns="http://www.w3.org/2000/svg"><g fill="#3D4752" fill-rule="evenodd"><path d="M9.3 11h3.3L11 5.4 9.3 11z"/><path d="M11 1L2 5l2 12 7 4 7-4 2-12-9-4zm3 15l-1-4H9l-1 4H6l4-12h2l4 12h-2z"/></g></svg>

<?xml version="1.0" encoding="UTF-8" standalone="no"?>
<svg width="22px" height="22px" viewBox="0 0 22 22" version="1.1" xmlns="http://www.w3.org/2000/svg" xmlns:xlink="http://www.w3.org/1999/xlink" xmlns:sketch="http://www.bohemiancoding.com/sketch/ns">
    <!-- Generator: Sketch 3.4.4 (17249) - http://www.bohemiancoding.com/sketch -->
    <title>icon-angular-22px</title>
    <desc>Created with Sketch.</desc>
    <defs></defs>
    <g id="22px" stroke="none" stroke-width="1" fill="none" fill-rule="evenodd" sketch:type="MSPage">
        <g id="icon-angular-22px" sketch:type="MSArtboardGroup" fill="#3D4752">
            <path d="M9.3,11 L12.6,11 L11,5.4 L9.3,11 Z" id="Shape" sketch:type="MSShapeGroup"></path>
            <path d="M11,1 L2,5 L4,17 L11,21 L18,17 L20,5 L11,1 L11,1 Z M14,16 L13,12 L9,12 L8,16 L6,16 L10,4 L12,4 L16,16 L14,16 L14,16 Z" id="Shape" sketch:type="MSShapeGroup"></path>
        </g>
    </g>
</svg>
